process/stage-3-final-color-mix/assets/lut/DJI OSMO Pocket 4P D-Log to Rec.709 V2.0 size33.cube
# DaVinci Resolve Cube (3D LUT).
#
#Generated by LUT Editor.
#Not-Clipped.
#
LUT_3D_SIZE 5
0.0000000000 0.0000000000 0.0000000000
0.0504928695 0.0029284124 0.0146870587
0.5374152916 0.0137842879 0.0721919203
0.9999914660 0.3295059010 0.2725426201
0.9999712385 0.7977694391 0.7462770553
0.0018671611 0.0604973714 0.0325633503
0.1170156582 0.1309753962 0.0052326799
0.5910038361 0.1461251466 0.0206742647
0.9999918805 0.3451749365 0.2779064944
0.9999694933 0.7986978657 0.7472044326
0.0019663078 0.5114515452 0.2082391568
0.0166387925 0.5516222764 0.1619582026
0.5942027547 0.6278899894 0.0166536278
1.0000000000 0.4977519138 0.3381497379
0.9999560961 0.8065421244 0.7549474391
0.3044154591 0.9992491443 0.4560099156
0.3214176752 0.9996743928 0.4593345827
0.4709893559 1.0000000000 0.4720907784
0.9317631863 0.9689700270 0.3382148704
0.9999989874 0.8835692635 0.8307222027
0.9185874469 0.9999592684 0.9038456220
0.9188065506 0.9999580218 0.9040240710
0.9206135776 0.9999486802 0.9054692596
0.9371200291 0.9999415300 0.9185939103
0.9978244187 1.0000000000 0.9629914056
0.0010310900 0.0051928649 0.0351415102
0.0855689576 0.0088715950 0.0812826203
0.5649770992 0.0238164929 0.1862057216
0.9999914660 0.3295059010 0.2725426201
0.9999712385 0.7977694391 0.7462770553
0.0011670194 0.0929676012 0.0911617737
0.1444945244 0.1444945244 0.1444945244
0.6418177575 0.0985513558 0.1512254517
0.9999918805 0.3451749365 0.2779064944
0.9999694933 0.7986978657 0.7472044326
0.0030950839 0.5242135725 0.2184879939
0.0142039993 0.5635015908 0.1738155086
0.5964223675 0.6287885154 0.0220950508
1.0000000000 0.4977519138 0.3381497379
0.9999560961 0.8065421244 0.7549474391
0.3044154591 0.9992491443 0.4560099156
0.3214176752 0.9996743928 0.4593345827
0.4709893559 1.0000000000 0.4720907784
0.9317631863 0.9689700270 0.3382148704
0.9999989874 0.8835692635 0.8307222027
0.9185874469 0.9999592684 0.9038456220
0.9188065506 0.9999580218 0.9040240710
0.9206135776 0.9999486802 0.9054692596
0.9371200291 0.9999415300 0.9185939103
0.9978244187 1.0000000000 0.9629914056
0.0055344054 0.1960371426 0.4217552637
0.0386091348 0.1249979985 0.5522968249
0.6194913040 0.0261748828 0.5723555231
1.0000000000 0.3889532753 0.4650716684
0.9999712385 0.7977694391 0.7462770553
0.0054632955 0.2063828213 0.4326226048
0.0439697952 0.1501358956 0.5695136405
0.6432746097 0.0570007114 0.5910570440
1.0000000000 0.4015732410 0.4683921503
0.9999694933 0.7986978657 0.7472044326
0.0093748039 0.5665976106 0.5551826031
0.0375621352 0.5799416172 0.5687460277
0.5865288320 0.5865288320 0.5865288320
1.0000000000 0.5425040902 0.5173195131
0.9999560961 0.8065421244 0.7549474391
0.3368765850 0.9997619674 0.4847844365
0.3540238917 0.9998035760 0.4872525154
0.4903016632 1.0000000000 0.4941157434
0.9321040827 0.9687081631 0.3509538035
0.9999989874 0.8835692635 0.8307222027
0.9185874469 0.9999592684 0.9038456220
0.9188065506 0.9999580218 0.9040240710
0.9206135776 0.9999486802 0.9054692596
0.9371200291 0.9999415300 0.9185939103
0.9978244187 1.0000000000 0.9629914056
0.0160770218 0.4462516645 0.9331065324
0.0160445807 0.4462237355 0.9330698344
0.2151268820 0.4402701188 1.0000000000
0.9942594040 0.3683195722 0.9088881660
0.9999456194 0.8260449289 0.8304885684
0.0159292014 0.4461244037 0.9329393150
0.0159119636 0.4460796509 0.9330733755
0.2184931913 0.4405217803 1.0000000000
0.9943381036 0.3725972903 0.9084419612
0.9999450163 0.8268210797 0.8310969387
0.0170197755 0.4626592145 0.9422069390
0.0236319232 0.4623462578 0.9529157967
0.2490671850 0.4677617222 0.9996757238
0.9948795466 0.4251706410 0.9057065590
0.9999468644 0.8333824171 0.8361566825
0.6690445044 0.9238642309 0.9100574700
0.6721322713 0.9240624286 0.9103325515
0.7073203921 0.9240323651 0.9114201343
0.9101814836 0.9101814836 0.9101814836
1.0000000000 0.9021047399 0.8903803336
0.9250309671 0.9999336399 0.9131018476
0.9252306096 0.9999330531 0.9132647876
0.9268754267 0.9999294676 0.9145785097
0.9419706620 0.9999679799 0.9264568422
0.9979282666 1.0000000000 0.9629696107
0.7950740872 0.8915579290 0.9999916271
0.7950681978 0.8915546720 0.9999916251
0.7950226827 0.8915295010 0.9999916101
0.8316470999 0.9033699677 0.9998755783
0.9999560490 0.9217688440 0.9749609820
0.7950472600 0.8915430928 0.9999916182
0.7950413701 0.8915398356 0.9999916163
0.7949958509 0.8915146623 0.9999916012
0.8317068816 0.9033776471 0.9998756504
0.9999561238 0.9217772865 0.9749553517
0.7948398647 0.8914283980 0.9999915498
0.7948339707 0.8914251385 0.9999915478
0.7947896761 0.8914003740 0.9999915452
0.8321697450 0.9034365094 0.9998763078
0.9999542116 0.9226083590 0.9751814398
0.8055816363 0.8980566830 0.9999786138
0.8055987421 0.8980669169 0.9999785004
0.8091061145 0.8992921680 0.9999758214
0.8473605343 0.9114235603 0.9999187774
0.9999339895 0.9320644673 0.9780907250
0.9675513095 0.9959195635 0.9938928433
0.9675981272 0.9959243986 0.9939021050
0.9679446688 0.9959651262 0.9939606622
0.9722490203 0.9961796946 0.9944658469
1.0000000000 1.0000000000 1.0000000000
