process/stage-3-final-color-mix/assets/lut/DJI OSMO Pocket 4P D-Log to Rec.709 V2.0 size33.cube
# DaVinci Resolve Cube (3D LUT).
#
#Generated by LUT Editor.
#Not-Clipped.
#
LUT_3D_SIZE	33
0.0000000000 0.0000000000 0.0000000000
0.0007046604 0.0022386320 0.0022175677
0.0023741463 0.0031440510 0.0034877416
0.0060772917 0.0029381245 0.0040398898
0.0108738480 0.0025145132 0.0047168463
0.0163757450 0.0022380471 0.0058359454
0.0239130408 0.0021915404 0.0077418073
0.0345953393 0.0023997444 0.0106267018
0.0504928695 0.0029284124 0.0146870587
0.0737613327 0.0037058805 0.0198001976
0.1061383066 0.0046209910 0.0255868266
0.1506561686 0.0053940793 0.0320012817
0.2075439087 0.0059440895 0.0392240772
0.2771842735 0.0068434927 0.0465423757
0.3571058552 0.0077856113 0.0541295433
0.4453704594 0.0101561712 0.0624894891
0.5374152916 0.0137842879 0.0721919203
0.6297678410 0.0201326752 0.0826851407
0.7188942202 0.0267099052 0.0942398378
0.8044107535 0.0277617856 0.1049416735
0.8850454098 0.0208858523 0.1143006538
0.9544389404 0.0393169701 0.1284047827
0.9949963164 0.1322770689 0.1637936391
1.0000000000 0.2493292173 0.2203140006
0.9999914660 0.3295059010 0.2725426201
0.9997909672 0.3869656382 0.3174185629
0.9997000147 0.4401501829 0.3628500267
0.9997639827 0.4942880535 0.4125719766
0.9998152274 0.5511532637 0.4687235863
0.9998926019 0.6106917781 0.5311531779
0.9999430276 0.6730587829 0.6000740261
0.9999624629 0.7362195277 0.6729236624
0.9999712385 0.7977694391 0.7462770553
0.0024501834 0.0014437717 0.0025448747
0.0024921073 0.0028443964 0.0038750504
0.0040711726 0.0038190248 0.0047945050
0.0081007519 0.0036066205 0.0048345818
0.0133066770 0.0031434444 0.0051514296
0.0192389677 0.0027762637 0.0060284246
0.0272437267 0.0026069771 0.0077248749
0.0385392808 0.0026276003 0.0103278316
0.0549772795 0.0029142009 0.0140559265
0.0788006764 0.0035670735 0.0187947023
0.1116817399 0.0043872952 0.0241322542
0.1572098263 0.0057827164 0.0296197157
0.2150670059 0.0066942566 0.0357450508
0.2851582868 0.0080429127 0.0420987507
0.3649951872 0.0097131626 0.0489113251
0.4526229672 0.0125416707 0.0570442484
0.5437859006 0.0170518336 0.0666577584
0.6349550947 0.0234532827 0.0779006243
0.7231879419 0.0303818248 0.0899565720
0.8078631564 0.0301056096 0.1013455590
0.8878415732 0.0226922681 0.1111862818
0.9565692993 0.0429008194 0.1256905819
0.9954148529 0.1371542404 0.1635358948
1.0000000000 0.2524897002 0.2206589277
0.9999914139 0.3309707373 0.2730257034
0.9997922945 0.3878926303 0.3178388914
0.9996995588 0.4408334665 0.3631974261
0.9997619211 0.4947885292 0.4128822106
0.9998135188 0.5515266896 0.4689770445
0.9998918713 0.6109633721 0.5313666825
0.9999425268 0.6732512084 0.6002440117
0.9999621359 0.7363577591 0.6730519659
0.9999710717 0.7978581687 0.7463656805
0.0031021740 0.0039639416 0.0046060714
0.0035062874 0.0053164953 0.0057029386
0.0054597476 0.0065247530 0.0060800078
0.0097282498 0.0066575205 0.0055091382
0.0156013707 0.0063290554 0.0052432570
0.0222745658 0.0060256315 0.0056447431
0.0312110687 0.0059135654 0.0068173079
0.0435094778 0.0060794937 0.0088242542
0.0609707450 0.0064982103 0.0118573832
0.0858574922 0.0072893766 0.0158690569
0.1195134242 0.0082814076 0.0204992468
0.1658010883 0.0102304526 0.0251500327
0.2241221623 0.0118349493 0.0302904423
0.2940990697 0.0133097344 0.0359168548
0.3733582972 0.0150796715 0.0422236902
0.4602017982 0.0184717234 0.0502806070
0.5500881552 0.0225537210 0.0605437680
0.6402625092 0.0291191308 0.0723547501
0.7273907402 0.0347793618 0.0855488619
0.8114660112 0.0338229069 0.0972204586
0.8907782512 0.0254971309 0.1076062018
0.9586045969 0.0463236403 0.1231008047
0.9958197105 0.1418690012 0.1632878947
1.0000000000 0.2555051044 0.2210183706
0.9999913619 0.3324089497 0.2735001624
0.9997936025 0.3888069259 0.3182535334
0.9996991078 0.4415096916 0.3635412771
0.9997598759 0.4952851056 0.4131900480
0.9998118204 0.5518979220 0.4692290265
0.9998911441 0.6112337636 0.5315792487
0.9999420277 0.6734429914 0.6004134331
0.9999618097 0.7364956423 0.6731799481
0.9999709052 0.7979467299 0.7464541384
0.0021652441 0.0087441912 0.0066667800
0.0026358231 0.0105206675 0.0075030029
0.0049666476 0.0120917616 0.0074602709
0.0098865282 0.0129945622 0.0063430782
0.0168327828 0.0130416061 0.0053099650
0.0247591082 0.0131005323 0.0049792009
0.0354248323 0.0135091627 0.0052249984
0.0491972125 0.0141628476 0.0064177161
0.0682094593 0.0151884008 0.0085522172
0.0945678149 0.0166594788 0.0116369715
0.1291844326 0.0182883762 0.0154558256
0.1757909581 0.0201350251 0.0194034157
0.2340608224 0.0223289059 0.0238015100
0.3035395280 0.0237987868 0.0287076510
0.3819955587 0.0257063776 0.0344997481
0.4676041383 0.0284465893 0.0429838641
0.5562753069 0.0303919746 0.0540483525
0.6452929434 0.0360628010 0.0668526643
0.7315821808 0.0402633466 0.0808215753
0.8148263395 0.0374409595 0.0933522000
0.8936198794 0.0283457713 0.1040749695
0.9604156193 0.0500420212 0.1208408996
0.9962117791 0.1464319166 0.1630490046
1.0000000000 0.2578411593 0.2215672043
0.9999913098 0.3338214968 0.2739663078
0.9997948916 0.3897088712 0.3186626439
0.9996986616 0.4421790038 0.3638816529
0.9997578468 0.4957778436 0.4134955261
0.9998101322 0.5522669869 0.4694795499
0.9998904201 0.6115029634 0.5317908849
0.9999415304 0.6736341363 0.6005822941
0.9999614843 0.7366331791 0.6733076107
0.9999707390 0.7980351233 0.7465424296
0.0013441807 0.0144230063 0.0092589694
0.0018033406 0.0165735798 0.0099871128
0.0042029076 0.0186851085 0.0096950021
0.0093194641 0.0204004083 0.0081902784
0.0170959035 0.0216158351 0.0061132737
0.0264478131 0.0226479254 0.0048177537
0.0390823295 0.0242533360 0.0040578729
0.0548395914 0.0259262185 0.0043006871
0.0758845155 0.0282030577 0.0055309576
0.1039022138 0.0309150233 0.0076890548
0.1396813274 0.0333944819 0.0105057403
0.1864959817 0.0356330768 0.0136821170
0.2443536708 0.0385568705 0.0173838438
0.3129974990 0.0396704665 0.0215098999
0.3902418209 0.0411263587 0.0271417372
0.4745223157 0.0401851177 0.0359507378
0.5622800499 0.0420613170 0.0473531129
0.6502153874 0.0450648952 0.0611560276
0.7356068369 0.0479785678 0.0760206410
0.8182639711 0.0420074948 0.0891105018
0.8963735254 0.0316853105 0.1005607616
0.9617558517 0.0548852409 0.1193005760
0.9965918643 0.1508525534 0.1628186501
1.0000000000 0.2601236816 0.2221038382
0.9999912577 0.3352092863 0.2744244336
0.9997961624 0.3905987987 0.3190663718
0.9996982202 0.4428415445 0.3642186245
0.9997558336 0.4962668028 0.4137986816
0.9998087024 0.5526309055 0.4697360709
0.9998896994 0.6117709821 0.5320015993
0.9999410347 0.6738246474 0.6007505984
0.9999611598 0.7367703714 0.6734349553
0.9999705731 0.7981233497 0.7466305547
0.0009274671 0.0206582693 0.0123857123
0.0012758428 0.0231376184 0.0130446013
0.0035921059 0.0258112090 0.0125111712
0.0088289949 0.0284693907 0.0105420062
0.0170495360 0.0309148559 0.0077720576
0.0276617834 0.0333704993 0.0055210651
0.0421182743 0.0365361950 0.0039590179
0.0605273451 0.0402953585 0.0032065698
0.0840765579 0.0446318340 0.0036260276
0.1141492553 0.0491400231 0.0049681738
0.1511725142 0.0532057704 0.0068525608
0.1979347521 0.0565242268 0.0091655801
0.2548788911 0.0595052615 0.0120580623
0.3223039084 0.0603583027 0.0153587182
0.3982545565 0.0591240486 0.0202540039
0.4814358312 0.0575306649 0.0290933916
0.5679787596 0.0558601464 0.0411036940
0.6549928149 0.0557401719 0.0555546972
0.7396999378 0.0556522997 0.0710217434
0.8217254912 0.0475026957 0.0847060066
0.8992642174 0.0367219257 0.0965977708
0.9636373769 0.0604279398 0.1167043405
0.9971238346 0.1556611995 0.1623699504
1.0000000000 0.2624584990 0.2226531613
0.9999912032 0.3366365500 0.2748957484
0.9997974738 0.3915179198 0.3194834162
0.9996977629 0.4435280411 0.3645678221
0.9997537427 0.4967747006 0.4141136003
0.9998074851 0.5530063664 0.4700111442
0.9998889484 0.6120503122 0.5322212140
0.9999405176 0.6740234158 0.6009262011
0.9999608210 0.7369136283 0.6735679313
0.9999703998 0.7982155342 0.7467226343
0.0007936520 0.0293154115 0.0169193472
0.0009488208 0.0321812798 0.0175643977
0.0031205253 0.0355474322 0.0168358938
0.0084178286 0.0393458643 0.0144713236
0.0169357975 0.0433872681 0.0111231881
0.0287982761 0.0478750260 0.0077730305
0.0460505655 0.0537700580 0.0050549239
0.0675032526 0.0602537046 0.0033362040
0.0944745517 0.0673948366 0.0029047227
0.1275496405 0.0744558397 0.0033796999
0.1657863026 0.0801350155 0.0046420215
0.2122357330 0.0847428741 0.0060565469
0.2677791956 0.0878293513 0.0076749778
0.3334750228 0.0884507140 0.0099050554
0.4078777957 0.0866030456 0.0141330962
0.4894145854 0.0817558831 0.0220536454
0.5748003335 0.0759033393 0.0337034968
0.6607090589 0.0727563782 0.0487469598
0.7445343291 0.0683174955 0.0650464262
0.8260046447 0.0550957398 0.0790976358
0.9028162063 0.0434361507 0.0916034999
0.9660470898 0.0673751431 0.1133323685
0.9976308166 0.1631024088 0.1622040972
1.0000000000 0.2662960518 0.2233781623
0.9999915002 0.3383885823 0.2755041589
0.9997991396 0.3926867926 0.3200138914
0.9996965330 0.4443999927 0.3650277910
0.9997510668 0.4974248514 0.4145167542
0.9998059238 0.5534880400 0.4703640496
0.9998879834 0.6124092594 0.5325034360
0.9999398523 0.6742791631 0.6011521472
0.9999603846 0.7370981287 0.6737391938
0.9999701765 0.7983343454 0.7468413118
0.0011251580 0.0420153534 0.0234705855
0.0009250603 0.0451841864 0.0240855326
0.0029161567 0.0492951093 0.0230548303
0.0080879277 0.0542486485 0.0202442315
0.0167158626 0.0597255401 0.0163131357
0.0292219898 0.0660074597 0.0121000187
0.0488247678 0.0747882570 0.0080295999
0.0747149492 0.0853795907 0.0048912180
0.1064439146 0.0964761925 0.0034019308
0.1428944541 0.1063164541 0.0033075467
0.1834475748 0.1144266903 0.0039051436
0.2297662234 0.1201368329 0.0047119954
0.2837175348 0.1244104595 0.0054716336
0.3471135469 0.1249714531 0.0063911998
0.4191164593 0.1223820662 0.0090516341
0.4987350146 0.1150427135 0.0155009109
0.5824813097 0.1064766719 0.0267795842
0.6673732141 0.0979115468 0.0412483436
0.7506284691 0.0855214038 0.0571770614
0.8313326145 0.0692475239 0.0716959126
0.9072374892 0.0534327776 0.0852507873
0.9686064712 0.0772660697 0.1099972755
0.9980307882 0.1726192724 0.1624121305
1.0000000000 0.2723705982 0.2243501364
0.9999919907 0.3411690840 0.2765082353
0.9998012976 0.3942031322 0.3207022422
0.9996933375 0.4455258171 0.3656623331
0.9997475673 0.4982753233 0.4150441804
0.9998038761 0.5541198985 0.4708270208
0.9998867151 0.6128811408 0.5328744714
0.9999389764 0.6746159283 0.6014496797
0.9999598094 0.7373413807 0.6739649977
0.9999698818 0.7984911398 0.7469979321
0.0018671611 0.0604973714 0.0325633503
0.0011888918 0.0640402888 0.0330756504
0.0026210161 0.0688555728 0.0317912354
0.0073925718 0.0748931635 0.0286118234
0.0156840519 0.0818124559 0.0241609630
0.0287524481 0.0901719576 0.0189370545
0.0504103067 0.1018920226 0.0128932740
0.0798021745 0.1157676959 0.0081426081
0.1170156582 0.1309753962 0.0052326799
0.1581618993 0.1443017962 0.0043274282
0.2018990835 0.1546565829 0.0045782357
0.2492315179 0.1617335501 0.0048977048
0.3020232023 0.1661995420 0.0048476473
0.3629615656 0.1678257808 0.0047617588
0.4320621142 0.1654079851 0.0061714336
0.5090016382 0.1581625966 0.0112266343
0.5910038361 0.1461251466 0.0206742647
0.6748003954 0.1322780681 0.0336512767
0.7575378832 0.1126219699 0.0483148254
0.8376327224 0.0898820878 0.0627463953
0.9125769931 0.0702959315 0.0771577953
0.9716458955 0.0934138153 0.1059362702
0.9985324115 0.1845334429 0.1626771734
1.0000000000 0.2796282731 0.2256907437
0.9999918805 0.3451749365 0.2779064944
0.9998087953 0.3968923435 0.3218284834
0.9996891932 0.4469864214 0.3664857311
0.9997430075 0.4993838512 0.4157317364
0.9998011981 0.5549464760 0.4714327181
0.9998850517 0.6135001708 0.5333612409
0.9999378251 0.6750586566 0.6018408466
0.9999590520 0.7376616955 0.6742623459
0.9999694933 0.7986978657 0.7472044326
0.0022130286 0.0863045021 0.0443773629
0.0012920841 0.0901663969 0.0448330248
0.0023281104 0.0957009002 0.0433299843
0.0065125745 0.1027963716 0.0398468205
0.0142259160 0.1110890088 0.0348666222
0.0268295062 0.1211348440 0.0284431353
0.0489310354 0.1345848644 0.0206342442
0.0811434748 0.1511300421 0.0132668587
0.1225957935 0.1691034946 0.0081266365
0.1691990849 0.1858355913 0.0056907267
0.2174014349 0.1989173699 0.0053274743
0.2680094701 0.2082702206 0.0052678824
0.3206196766 0.2138234200 0.0049503395
0.3797975616 0.2158635916 0.0044475471
0.4461127968 0.2144340467 0.0051585871
0.5202295755 0.2077915748 0.0089126745
0.6001318694 0.1946765293 0.0162798550
0.6825946806 0.1770964406 0.0273412505
0.7647497736 0.1515991641 0.0400837712
0.8447285858 0.1201696248 0.0525938991
0.9186815475 0.0951430513 0.0679089681
0.9753731316 0.1153325602 0.1008776583
0.9991245334 0.2022162634 0.1634024036
1.0000000000 0.2872219300 0.2277355567
0.9999917347 0.3502547359 0.2796807531
0.9998203323 0.4005478601 0.3233675971
0.9996913048 0.4496038985 0.3678780502
0.9997370939 0.5008221041 0.4166239639
0.9997977087 0.5560239175 0.4722223339
0.9998828763 0.6143099953 0.5339980969
0.9999363151 0.6756394560 0.6023540318
0.9999580564 0.7380828032 0.6746532758
0.9999689818 0.7989700874 0.7474763648
0.0024331062 0.1218531682 0.0594866712
0.0016300289 0.1264987848 0.0596549557
0.0022791587 0.1326964683 0.0581373839
0.0055924946 0.1404956758 0.0545898645
0.0121841462 0.1495307436 0.0492871335
0.0236519605 0.1602226067 0.0421281677
0.0443060153 0.1744102308 0.0320557214
0.0768294969 0.1919136272 0.0214333649
0.1209301528 0.2114225531 0.0126430976
0.1724065280 0.2301455346 0.0076565879
0.2266968750 0.2460332270 0.0057399322
0.2815323721 0.2568914192 0.0053879778
0.3373466671 0.2643566958 0.0054175131
0.3963675510 0.2676461676 0.0053984168
0.4608471263 0.2671544780 0.0062753521
0.5322280107 0.2616674393 0.0092388019
0.6093947116 0.2499787286 0.0150721603
0.6902073678 0.2308706721 0.0238396049
0.7718192751 0.2016297623 0.0336178391
0.8517864744 0.1641652581 0.0434395996
0.9251262526 0.1324499651 0.0582628019
0.9786876568 0.1496267800 0.0973230888
0.9993419461 0.2244574080 0.1655037814
1.0000000000 0.3005931791 0.2306346560
0.9999933204 0.3565760276 0.2819275326
0.9998384240 0.4050335316 0.3254845998
0.9996950605 0.4530582916 0.3697075693
0.9997337019 0.5034395625 0.4181808977
0.9997931207 0.5574466482 0.4732621868
0.9998800417 0.6153656484 0.5348283730
0.9999343402 0.6763992897 0.6030254567
0.9999567506 0.7386352494 0.6751661595
0.9999683094 0.7993279764 0.7478338858
0.0028544548 0.1671605166 0.0780058263
0.0019766040 0.1726762012 0.0779386372
0.0024916520 0.1797148193 0.0761332329
0.0052146785 0.1880292425 0.0723845395
0.0103194789 0.1971761791 0.0669859802
0.0194249997 0.2075386640 0.0593352157
0.0373229331 0.2212258232 0.0481613033
0.0674334142 0.2382903615 0.0341061329
0.1107348434 0.2575272364 0.0208352324
0.1657883378 0.2769982007 0.0116125820
0.2253286518 0.2948774516 0.0067821942
0.2873962417 0.3084811259 0.0060491202
0.3476094425 0.3174451260 0.0066987013
0.4093750629 0.3221777898 0.0075233862
0.4738950413 0.3226056251 0.0088603358
0.5431381037 0.3187326434 0.0118415438
0.6180762831 0.3086727027 0.0169372017
0.6971775138 0.2907369972 0.0236166789
0.7780958185 0.2612047218 0.0302925190
0.8581326015 0.2211427488 0.0368956828
0.9308616712 0.1863785420 0.0510883898
0.9815342470 0.1941449454 0.0960919146
0.9996047597 0.2544964698 0.1691305921
1.0000000000 0.3159974030 0.2347510766
0.9999965567 0.3666042011 0.2856733819
0.9998610846 0.4106600718 0.3281415502
0.9996998233 0.4574402150 0.3720292100
0.9997254113 0.5067695157 0.4203198439
0.9997853758 0.5600031235 0.4750457455
0.9998764160 0.6167743845 0.5359611334
0.9999317667 0.6773898164 0.6039008149
0.9999551096 0.7393472782 0.6758329248
0.9999674275 0.7997975003 0.7483029488
0.0025142414 0.2236476760 0.1001640020
0.0015655722 0.2296222646 0.1000089309
0.0017372048 0.2368041070 0.0981539440
0.0037590857 0.2449185058 0.0942928730
0.0076489263 0.2534470702 0.0889160073
0.0142440111 0.2628354804 0.0810590317
0.0284125733 0.2750947689 0.0692083004
0.0533303490 0.2903995343 0.0529872479
0.0926304102 0.3081915847 0.0350090225
0.1482833858 0.3270598107 0.0202451125
0.2127395197 0.3455367250 0.0103145969
0.2813162144 0.3610244160 0.0072079855
0.3491881005 0.3725384419 0.0076703236
0.4150345807 0.3790507797 0.0092102242
0.4820472114 0.3810061383 0.0115143636
0.5514356419 0.3782753121 0.0150225534
0.6252433306 0.3694562755 0.0198352015
0.7025052441 0.3540452509 0.0252089630
0.7828588661 0.3271424957 0.0297371241
0.8628404989 0.2888989475 0.0341105795
0.9351114977 0.2529771858 0.0483654490
0.9838171671 0.2506624665 0.0979200656
0.9997066332 0.2914935491 0.1748235636
1.0000000000 0.3388734641 0.2405460072
0.9999964233 0.3794180355 0.2904013109
0.9998796483 0.4201939848 0.3323891849
0.9996973569 0.4628627176 0.3751231053
0.9997149006 0.5109941030 0.4230342405
0.9997754659 0.5632763873 0.4773298857
0.9998718219 0.6192077390 0.5379026026
0.9999283728 0.6787502492 0.6050930545
0.9999532762 0.7402265302 0.6766826907
0.9999662740 0.8004117954 0.7489166788
0.0025813884 0.2890030946 0.1252631504
0.0014647414 0.2950560716 0.1248318260
0.0010990215 0.3017851714 0.1227923005
0.0019626361 0.3090283311 0.1189952195
0.0040971346 0.3164723454 0.1139073578
0.0084039569 0.3244441678 0.1066539780
0.0179436930 0.3349982235 0.0955843148
0.0367012491 0.3481229218 0.0788171338
0.0686516027 0.3638005564 0.0573404820
0.1205084689 0.3812009437 0.0362154123
0.1875227861 0.3989987739 0.0195653330
0.2622774689 0.4153959636 0.0105020524
0.3379115029 0.4283734740 0.0089089639
0.4116341598 0.4373038079 0.0102913909
0.4831527065 0.4406650280 0.0132369653
0.5546416371 0.4395649269 0.0174572093
0.6285908306 0.4325976298 0.0221267367
0.7053116647 0.4189916302 0.0264335767
0.7852826648 0.3952383654 0.0299138347
0.8650539513 0.3619611193 0.0340556634
0.9372533524 0.3271065966 0.0499536208
0.9848978758 0.3158303901 0.1036104157
0.9997446372 0.3359109427 0.1833323297
1.0000000000 0.3662499330 0.2487155217
0.9999998491 0.3981498031 0.2977447893
0.9999240771 0.4318862425 0.3381812285
0.9997234359 0.4720213076 0.3802148450
0.9997017242 0.5162948883 0.4264414382
0.9997647217 0.5673917387 0.4802832892
0.9998659438 0.6223236580 0.5403891480
0.9999235523 0.6811001349 0.6070765563
0.9999508023 0.7414531134 0.6778573664
0.9999647709 0.8012126616 0.7497168737
0.0013704851 0.3604235388 0.1519527157
0.0003860048 0.3659191876 0.1510839605
0.0000355025 0.3717164542 0.1489353111
0.0003937739 0.3778270525 0.1454791439
0.0013949061 0.3839861994 0.1407650623
0.0041223710 0.3906720551 0.1343027122
0.0103113570 0.3991975538 0.1242272816
0.0234586066 0.4101084460 0.1089449348
0.0472733013 0.4234085354 0.0876640369
0.0903469175 0.4388329313 0.0614556129
0.1527815648 0.4554213310 0.0381824209
0.2294098108 0.4715084207 0.0208428805
0.3124350389 0.4856036191 0.0127468148
0.3936449802 0.4961403356 0.0115828263
0.4736216573 0.5019384300 0.0135837215
0.5497049832 0.5022696184 0.0180269876
0.6264049377 0.4967754246 0.0231046321
0.7042083943 0.4850278544 0.0267730664
0.7839471389 0.4645731290 0.0292898691
0.8638939865 0.4353958842 0.0342588812
0.9366569279 0.4031505903 0.0532480283
0.9845954449 0.3847747364 0.1111929079
0.9997982083 0.3885662796 0.1934019900
1.0000000000 0.4022682175 0.2595861950
1.0000000000 0.4227614582 0.3075960365
0.9999511949 0.4497359893 0.3467705448
0.9997502195 0.4833455581 0.3867174663
0.9997024168 0.5252036955 0.4322112046
0.9997547055 0.5724845320 0.4840941767
0.9998584925 0.6262776761 0.5435453254
0.9999174518 0.6840910813 0.6096184362
0.9999470151 0.7435675687 0.6798194602
0.9999627214 0.8023442778 0.7508365102
0.0015472318 0.4353804494 0.1797990747
0.0006345796 0.4399965244 0.1786391836
0.0001666067 0.4447881405 0.1765043693
0.0000575258 0.4496870881 0.1733969535
0.0003110312 0.4546107612 0.1692950073
0.0019845478 0.4599768752 0.1637423967
0.0057045680 0.4666992571 0.1553768896
0.0140422597 0.4754988978 0.1425034278
0.0301407363 0.4863955200 0.1236057125
0.0604178677 0.4995456252 0.0978646741
0.1126495585 0.5144280129 0.0689524908
0.1846814549 0.5295616885 0.0420720528
0.2707005750 0.5438649059 0.0228072658
0.3610486609 0.5554228428 0.0145674178
0.4494060891 0.5629814950 0.0132966186
0.5345934765 0.5657329331 0.0162470218
0.6156965612 0.5620129340 0.0213121335
0.6961700232 0.5521130399 0.0252648803
0.7775111108 0.5343716906 0.0277365623
0.8584692923 0.5082253051 0.0331069740
0.9324382291 0.4781171516 0.0543511252
0.9826076734 0.4553922173 0.1162281617
0.9998419564 0.4471235098 0.2029596492
1.0000000000 0.4476443050 0.2726615311
1.0000000000 0.4556095011 0.3210392968
0.9999953817 0.4731235121 0.3585114881
0.9998264736 0.5005186199 0.3967217434
0.9996994115 0.5361477998 0.4395058702
0.9997527063 0.5811687972 0.4903251071
0.9998490987 0.6312196859 0.5475188154
0.9999102659 0.6877400720 0.6128560895
0.9999421683 0.7462755131 0.6823326968
0.9999595584 0.8042896503 0.7527083198
0.0019663078 0.5114515452 0.2082391568
0.0011004544 0.5151665204 0.2068583245
0.0005147780 0.5189599796 0.2048610849
0.0001992453 0.5227658260 0.2022117162
0.0003611141 0.5267743740 0.1986046777
0.0009321415 0.5307779614 0.1943713446
0.0028121785 0.5360080002 0.1877578303
0.0074590752 0.5429082669 0.1774908072
0.0166387925 0.5516222764 0.1619582026
0.0355978214 0.5625250929 0.1389928758
0.0722540241 0.5754355424 0.1089985760
0.1306037766 0.5893774392 0.0751190892
0.2120634860 0.6032030443 0.0437802223
0.3089931077 0.6154602112 0.0223994202
0.4076243712 0.6245279220 0.0137696887
0.5032672056 0.6289373477 0.0131270886
0.5942027547 0.6278899894 0.0166536278
0.6798226249 0.6195992509 0.0209118775
0.7643680608 0.6040065706 0.0239073151
0.8472861125 0.5807752489 0.0293275447
0.9236269101 0.5521406713 0.0505788350
0.9780548020 0.5266015298 0.1146096375
0.9997826115 0.5100810476 0.2082668036
1.0000000000 0.5003578778 0.2864845876
1.0000000000 0.4977519138 0.3381497379
1.0000000000 0.5042789532 0.3749162332
0.9999064545 0.5229614350 0.4103247911
0.9997434788 0.5527135016 0.4506565076
0.9997507338 0.5916347494 0.4981906484
0.9998434530 0.6394223247 0.5541641364
0.9999012571 0.6923206109 0.6169214679
0.9999360220 0.7497124357 0.6855231987
0.9999560961 0.8065421244 0.7549474391
0.0022346060 0.5871591939 0.2369620665
0.0013021396 0.5900498436 0.2355329690
0.0006586084 0.5930155937 0.2335692220
0.0001975729 0.5959009722 0.2314120933
0.0001084324 0.5989244657 0.2284189379
0.0001742375 0.6019179928 0.2252695064
0.0012672417 0.6061228436 0.2196343530
0.0033477426 0.6114461799 0.2114024185
0.0076557330 0.6182177581 0.1991638589
0.0179992263 0.6269419266 0.1802881398
0.0403111932 0.6377090655 0.1529105275
0.0808401354 0.6500404430 0.1171948005
0.1477512538 0.6630190829 0.0769018175
0.2406532016 0.6753922669 0.0421065620
0.3473384516 0.6856068267 0.0203935958
0.4547075363 0.6917258078 0.0122312471
0.5560711962 0.6928885740 0.0121444453
0.6518594163 0.6874633428 0.0147489137
0.7412536895 0.6741734669 0.0171526580
0.8282001027 0.6530096032 0.0225930774
0.9089529741 0.6259402642 0.0425522726
0.9692270955 0.5983598096 0.1049178395
0.9984267424 0.5759772834 0.2055404290
1.0000000000 0.5590285282 0.2971121251
1.0000000000 0.5475692320 0.3574629447
1.0000000000 0.5444778106 0.3959659386
0.9999929917 0.5529489144 0.4288145800
0.9998236457 0.5743855517 0.4654500650
0.9997852021 0.6076301108 0.5099751854
0.9998367192 0.6494765268 0.5623088523
0.9998941770 0.7001379009 0.6236145972
0.9999291766 0.7538038731 0.6894132142
0.9999517059 0.8094013068 0.7577902535
0.0007738545 0.6612416904 0.2653400007
0.0003092767 0.6633730463 0.2641274540
0.0000829018 0.6656251302 0.2624026065
0.0000203202 0.6677281847 0.2607021030
0.0000000000 0.6701282613 0.2580378497
0.0000000000 0.6725074449 0.2551939126
0.0003065106 0.6756119928 0.2510233855
0.0006462488 0.6795744417 0.2448997772
0.0019177469 0.6848717824 0.2351284778
0.0065554586 0.6917560192 0.2199541428
0.0187773158 0.7004335134 0.1971103628
0.0434954276 0.7108858083 0.1650466564
0.0900143750 0.7226656117 0.1230620656
0.1668963624 0.7347427043 0.0776818417
0.2709752138 0.7454310831 0.0418303169
0.3862820342 0.7533288912 0.0205282313
0.4994942240 0.7566357370 0.0128014413
0.6065031279 0.7536427107 0.0110235147
0.7064195987 0.7438464476 0.0103102916
