stage-3-final-color-mix/assets/lut/DJI OSMO Pocket 4P D-Log2 to Rec.709 V1.0 size65.cube
# DaVinci Resolve Cube (3D LUT).
#
#Generated by LUT Editor.
#Not-Clipped.
#
LUT_3D_SIZE	65
0 0 0
0 0.000442512 0.000335698
0.00015259 0.00244144 0.00231937
0.00434882 0.00277714 0.00347906
0.0104219 0.0024567 0.00451667
0.0166171 0.00247196 0.00605783
0.0230564 0.00268559 0.0078584
0.0296178 0.00299077 0.00970474
0.0365759 0.00334173 0.0116426
0.0448157 0.00378424 0.0137636
0.054551 0.00428779 0.0161593
0.067216 0.00489815 0.0190127
0.0827039 0.00556954 0.0221866
0.101686 0.00627146 0.0257877
0.123919 0.0069276 0.0297093
0.151354 0.00746166 0.0341497
0.183474 0.00808728 0.0390631
0.219257 0.00894179 0.0443275
0.259937 0.00979629 0.0501869
0.303548 0.0104829 0.0563973
0.351217 0.0114595 0.0632486
0.401419 0.0132296 0.070634
0.452552 0.01561 0.0783856
0.505791 0.0183413 0.086717
0.559106 0.0212406 0.0953231
0.612406 0.0239109 0.104204
0.665278 0.0255741 0.113191
0.716594 0.0256046 0.121996
0.767239 0.0233768 0.130617
0.816098 0.0193637 0.138827
0.862882 0.01561 0.146746
0.907271 0.0178378 0.155245
0.945953 0.0352941 0.165713
0.976013 0.0772106 0.180636
0.994141 0.141222 0.201801
0.999817 0.208637 0.227253
1 0.268315 0.25478
1 0.316396 0.282094
1 0.355749 0.308812
1 0.391196 0.336141
0.999908 0.424704 0.364111
0.999863 0.459113 0.394354
0.999893 0.494682 0.426978
0.999924 0.531136 0.461784
0.999939 0.570108 0.500496
0.999969 0.610025 0.541756
0.999985 0.650507 0.585046
1 0.69221 0.630991
1 0.733669 0.677897
1 0.77435 0.724956
1 0.813718 0.771298
1 0.850019 0.814694
1 0.883467 0.855161
1 0.912749 0.890883
1 0.937026 0.920745
1 0.956863 0.945357
1 0.971954 0.964248
1 0.982574 0.977661
1 0.989731 0.98677
1 0.994079 0.99234
1 0.99649 0.995453
1 0.997833 0.997177
1 0.99855 0.998108
1 0.99884 0.998505
1 0.99884 0.998505
0.000793469 0 0.000411994
0.000610361 0.000549325 0.00112917
0.00129702 0.00257877 0.00323491
0.00588998 0.00257877 0.00399786
0.0121767 0.00215152 0.0049897
0.0185397 0.00205997 0.00656138
0.024979 0.00222782 0.00836194
0.0318761 0.00244144 0.0102693
0.0387427 0.00273136 0.0121614
0.0472572 0.00308232 0.0142977
0.0572366 0.00352483 0.0166781
0.0697032 0.00407416 0.01944
0.0857404 0.004654 0.0225986
0.104494 0.00531014 0.0260471
0.127398 0.00593576 0.0299077
0.154818 0.00654612 0.034165
0.186145 0.00721752 0.0387579
0.222171 0.0081178 0.0438849
0.261738 0.00906386 0.0493935
0.304479 0.00987259 0.055314
0.35082 0.0108339 0.0618296
0.398825 0.0124666 0.0687724
0.449851 0.0149081 0.0763867
0.502083 0.0175021 0.0844739
0.554971 0.0201267 0.0929885
0.608484 0.0226444 0.1019
0.660334 0.0243534 0.110765
0.71252 0.0247807 0.119829
0.763012 0.0229953 0.128573
0.8112 0.0195315 0.136828
0.858534 0.0158846 0.144945
0.902602 0.0172732 0.153323
0.942245 0.0327459 0.163638
0.973541 0.0719615 0.17818
0.992737 0.133272 0.198428
0.999817 0.202182 0.224125
1 0.262654 0.251591
1 0.311437 0.278813
1 0.35201 0.305974
1 0.387472 0.333074
0.999924 0.421363 0.361196
0.999863 0.455756 0.391318
0.999893 0.490608 0.423163
0.999924 0.527321 0.458091
0.999939 0.566033 0.496422
0.999969 0.60531 0.536782
0.999985 0.64654 0.580667
1 0.687938 0.626184
1 0.729717 0.67335
1 0.771023 0.72105
1 0.810376 0.76733
1 0.847318 0.811429
1 0.880293 0.851286
1 0.90956 0.886976
1 0.934691 0.917861
1 0.954986 0.943023
1 0.970321 0.962203
1 0.981567 0.976379
1 0.989059 0.985916
1 0.993606 0.99173
1 0.996246 0.995148
1 0.997696 0.997009
1 0.998474 0.998016
1 0.99884 0.998505
1 0.99884 0.998505
0.0027924 0.00158694 0.00289921
0.00270085 0.00241093 0.00376898
0.00335698 0.00415045 0.00534066
0.00851453 0.00427253 0.00520333
0.0162356 0.00323491 0.00552377
0.0228733 0.00271611 0.00671397
0.0297398 0.00256352 0.00827039
0.036759 0.00248722 0.00991836
0.0437171 0.00263981 0.0116426
0.0525216 0.00273136 0.0135653
0.0622873 0.00299077 0.0157778
0.0750591 0.00335698 0.0183871
0.090547 0.00369268 0.0213016
0.109346 0.0041352 0.0245823
0.131518 0.00454719 0.0281529
0.15761 0.0049897 0.032105
0.188373 0.00552377 0.0365301
0.222736 0.00621042 0.0413519
0.260716 0.00704967 0.0466316
0.302892 0.00787366 0.0524605
0.347402 0.00875868 0.0587472
0.39556 0.0101778 0.0657054
0.445563 0.012726 0.0732433
0.497078 0.0153048 0.0812848
0.549859 0.0177462 0.0898146
0.601694 0.0204318 0.0985428
0.653971 0.0225528 0.107576
0.705867 0.0236973 0.116716
0.755261 0.0227207 0.125444
0.804196 0.019913 0.133989
0.850919 0.0161593 0.142077
0.895872 0.0159152 0.150423
0.936629 0.027985 0.160311
0.969223 0.0614786 0.173709
0.990814 0.121508 0.193347
0.999863 0.190951 0.218631
1 0.252445 0.245747
1 0.303304 0.27335
1 0.344411 0.300206
1 0.380423 0.327245
0.999939 0.414557 0.355261
0.999863 0.448157 0.384451
0.999878 0.483116 0.416144
0.999924 0.519432 0.450446
0.999939 0.55729 0.487633
0.999969 0.596811 0.527962
0.999985 0.637781 0.571283
1 0.678752 0.616007
1 0.720684 0.663035
1 0.761685 0.71014
1 0.801801 0.757107
1 0.839658 0.802197
1 0.873854 0.843442
1 0.90454 0.880812
1 0.930632 0.91284
1 0.951568 0.938766
1 0.967941 0.959197
1 0.979843 0.974197
1 0.987869 0.98439
1 0.99295 0.99089
1 0.995895 0.994675
1 0.997482 0.996719
1 0.998367 0.997879
1 0.998795 0.998444
1 0.99884 0.998505
0.00213626 0.00700389 0.0055848
0.00192264 0.00805676 0.00640879
0.00291447 0.0101778 0.00743114
0.00857557 0.0111696 0.00633249
0.0173037 0.0105287 0.00509651
0.0264897 0.00950637 0.00527962
0.0350805 0.00877394 0.00634775
0.0430304 0.00846876 0.00756847
0.0508278 0.00849927 0.00869764
0.0595712 0.00830091 0.0103151
0.0699168 0.00828565 0.0121004
0.0822766 0.00833143 0.0144045
0.097261 0.00810254 0.0170901
0.115404 0.00790417 0.0200809
0.136126 0.00759899 0.0234379
0.16199 0.00733959 0.0272221
0.191485 0.00708019 0.0315099
0.224765 0.00688182 0.0363012
0.262425 0.00680552 0.0416419
0.302907 0.0069276 0.0476081
0.347494 0.00738537 0.0542
0.394812 0.00830091 0.0614176
0.443336 0.0104677 0.069276
0.494285 0.0129091 0.0776684
0.545113 0.0153964 0.086305
0.597101 0.0183871 0.0953536
0.648798 0.0209659 0.104524
0.699245 0.0226749 0.113649
0.749203 0.0225223 0.122652
0.797269 0.0204013 0.131212
0.844556 0.0169833 0.139544
0.889708 0.0159915 0.147936
0.930434 0.0251316 0.157382
0.965026 0.0544747 0.17023
0.988739 0.111162 0.188815
0.999863 0.179767 0.213123
1 0.2439 0.240665
1 0.295506 0.267994
1 0.337774 0.295079
1 0.374029 0.321904
0.999969 0.407355 0.348974
0.999878 0.441169 0.378103
0.999878 0.475975 0.409461
0.999908 0.511574 0.442817
0.999939 0.549493 0.47982
0.999954 0.588556 0.519402
0.999985 0.628733 0.561593
1 0.6701 0.606455
1 0.711269 0.652399
1 0.752834 0.699931
1 0.793301 0.747127
1 0.831159 0.79202
1 0.866712 0.834806
1 0.898482 0.873396
1 0.925307 0.906279
1 0.94757 0.933776
1 0.964843 0.955322
1 0.977523 0.971267
1 0.986419 0.982544
1 0.992065 0.989746
1 0.995346 0.993973
1 0.997192 0.996353
1 0.998199 0.997665
1 0.998718 0.998337
1 0.99884 0.998505
0.00140383 0.0142519 0.00903334
0.00106813 0.0155184 0.00993362
0.00163272 0.0184634 0.0108034
0.00689708 0.0204776 0.00910964
0.0167086 0.0216373 0.00627146
0.0271763 0.0223087 0.00476081
0.0382391 0.0227512 0.00428779
0.0487678 0.0229191 0.00447089
0.0577249 0.0222782 0.00521859
0.0674144 0.0221866 0.00616464
0.0780346 0.0219577 0.00730907
0.0903639 0.0214389 0.00923171
0.105669 0.0209812 0.0112764
0.122835 0.0199283 0.0138247
0.143999 0.0188296 0.0168154
0.169085 0.0171817 0.0202335
0.197589 0.0155337 0.0242466
0.230365 0.0138094 0.0288396
0.266148 0.0119631 0.034165
0.306416 0.0105287 0.0402075
0.349889 0.00946059 0.0471962
0.395148 0.00895705 0.0550393
0.443442 0.00975052 0.0635996
0.492363 0.0113222 0.0726024
0.543206 0.0135195 0.0820172
0.594354 0.0165408 0.0916304
0.644419 0.0195773 0.101137
0.695048 0.0219272 0.110719
0.744503 0.0224918 0.119966
0.79237 0.0209201 0.128756
0.839429 0.017792 0.13724
0.883757 0.0164034 0.145556
0.925429 0.0240635 0.155062
0.960662 0.0506447 0.16759
0.985214 0.102724 0.185275
0.998199 0.170459 0.209186
1 0.234394 0.235935
1 0.288457 0.263615
1 0.33193 0.290684
1 0.368078 0.316945
1 0.401999 0.344244
0.999878 0.435599 0.373037
0.999863 0.469535 0.403403
0.999908 0.505364 0.436774
0.999939 0.542672 0.472938
0.999954 0.58114 0.511681
0.999985 0.621622 0.553964
1 0.66215 0.597711
1 0.703822 0.643992
1 0.745388 0.691341
1 0.785382 0.73785
1 0.82414 0.783673
1 0.860151 0.826886
1 0.892012 0.865538
1 0.919905 0.899657
1 0.943267 0.92845
1 0.961578 0.951232
1 0.97554 0.96875
1 0.985107 0.98088
1 0.991226 0.988693
1 0.994888 0.993378
1 0.996918 0.996017
1 0.998047 0.997467
1 0.998642 0.998245
1 0.99884 0.998505
0.00131228 0.0216068 0.0128634
0.000793469 0.0232853 0.0139467
0.00112917 0.0263828 0.0145724
0.00582895 0.0295109 0.0125277
0.0160372 0.0320745 0.00842298
0.0276646 0.0340124 0.00567636
0.0398108 0.0362707 0.00424201
0.0517739 0.037705 0.00352483
0.0625772 0.0383001 0.00349432
0.0740673 0.0384527 0.0039826
0.086305 0.0388952 0.00459297
0.0996719 0.0389563 0.00572213
0.11519 0.0385443 0.00706493
0.133211 0.0379492 0.00868238
0.15433 0.0362707 0.0109712
0.178866 0.0335393 0.0137484
0.207156 0.0306554 0.0171359
0.238361 0.0271305 0.0212711
0.274098 0.0232395 0.0261082
0.313481 0.01944 0.0320592
0.3552 0.0158389 0.039353
0.400427 0.0131991 0.0476997
0.446754 0.01178 0.0569619
0.495598 0.0118105 0.0669261
0.545373 0.0130159 0.0772412
0.594614 0.0154879 0.0875868
0.644663 0.0186618 0.0979324
0.694209 0.0213474 0.108034
0.742321 0.0224002 0.117586
0.790585 0.0212253 0.126818
0.836454 0.0183719 0.135332
0.88127 0.0167391 0.143877
0.92282 0.0234989 0.153353
0.957687 0.0478523 0.165515
0.983352 0.0981155 0.183032
0.99707 0.164141 0.206317
1 0.228016 0.232685
1 0.282673 0.260166
1 0.32639 0.28687
1 0.363867 0.313664
1 0.398032 0.340841
0.999893 0.430915 0.368795
0.999863 0.465049 0.399161
0.999908 0.500175 0.431708
0.999939 0.537011 0.467262
0.999954 0.575509 0.505852
0.999985 0.615396 0.547311
1 0.655985 0.590921
1 0.697475 0.636835
1 0.738338 0.683223
1 0.779049 0.730419
1 0.818036 0.77641
1 0.853895 0.819348
1 0.886702 0.859068
1 0.915221 0.893904
1 0.939101 0.923308
1 0.958495 0.947402
1 0.97319 0.965789
1 0.983444 0.978775
1 0.990311 0.987503
1 0.9944 0.992767
1 0.996674 0.995697
1 0.997909 0.997284
1 0.998581 0.998154
1 0.99884 0.998505
0.00149538 0.0290837 0.0168002
0.000808728 0.0306401 0.0178225
0.000900282 0.0339818 0.0183719
0.00488289 0.0375525 0.0161288
0.0148928 0.0414282 0.0115358
0.0274815 0.0450141 0.0075227
0.041062 0.0484627 0.00526436
0.0541238 0.0517281 0.0039826
0.0669566 0.0543374 0.00317388
0.0802777 0.0561532 0.00317388
0.0945754 0.0576638 0.0033875
0.109957 0.0582742 0.00395209
0.126528 0.0587167 0.00477607
0.145113 0.0586252 0.00579843
0.165789 0.0572976 0.00717174
0.1906 0.0550088 0.00901808
0.218021 0.051545 0.0114595
0.249607 0.0471504 0.0145876
0.284718 0.0413367 0.018555
0.322454 0.0343786 0.0239109
0.36434 0.0276646 0.0309148
0.408331 0.0217288 0.0396277
0.454337 0.0174563 0.0496223
0.502281 0.0150607 0.0605478
0.550256 0.0145113 0.0718395
0.599527 0.0159457 0.08336
0.64831 0.0186007 0.0946365
0.69659 0.0211643 0.10544
0.744701 0.0223697 0.115709
0.791699 0.0213474 0.125231
0.837827 0.018555 0.134142
0.882185 0.0169528 0.142855
0.922652 0.0235294 0.152316
0.957809 0.0480049 0.164752
0.983017 0.0975509 0.182208
0.996704 0.162982 0.205371
1 0.227604 0.232059
1 0.281239 0.259037
1 0.325658 0.286107
1 0.363027 0.312825
1 0.396521 0.339467
0.999893 0.429831 0.367834
0.999863 0.463706 0.39794
0.999908 0.498405 0.430014
0.999939 0.535103 0.465309
0.999969 0.572808 0.503014
0.999985 0.612848 0.544549
1 0.653529 0.58819
1 0.694194 0.633127
1 0.735561 0.680003
1 0.776196 0.727062
1 0.814511 0.772198
1 0.850782 0.815579
1 0.883864 0.855619
1 0.912505 0.890578
1 0.937026 0.920729
1 0.956664 0.945098
1 0.971588 0.96379
1 0.982406 0.977447
1 0.989502 0.986481
1 0.993912 0.992126
1 0.996414 0.995346
1 0.997772 0.997116
1 0.99852 0.998077
1 0.99884 0.998505
0.00198367 0.0367437 0.0207218
0.00117494 0.0384527 0.0218509
0.000808728 0.0418402 0.0224002
0.00427253 0.0459297 0.0201572
0.014023 0.0511788 0.0151217
0.0264591 0.0558328 0.0104067
0.0420844 0.0615244 0.00700389
0.0569619 0.0661784 0.00511177
0.0704662 0.0700694 0.00399786
0.0858473 0.0741894 0.0033875
0.100984 0.076524 0.00329595
0.1187 0.0787366 0.00349432
0.13991 0.0808881 0.00360113
0.156893 0.0799573 0.00469978
0.17818 0.079408 0.00567636
0.202152 0.0776837 0.00660716
0.229557 0.0747387 0.00793469
0.260868 0.0700542 0.0101015
0.294621 0.0634318 0.0130007
0.332555 0.055314 0.0170901
0.3729 0.0459602 0.0231479
0.416602 0.0363622 0.0313573
0.462455 0.0281682 0.0415656
0.508827 0.0219883 0.0531319
0.556954 0.0185855 0.0656138
0.604593 0.0179599 0.0782483
0.652811 0.0194705 0.0907454
0.70071 0.0214694 0.102602
0.74725 0.0224002 0.113466
0.794186 0.0213016 0.123629
0.839765 0.0184787 0.132891
0.88307 0.0169528 0.141711
0.923812 0.023682 0.151507
0.958038 0.0478676 0.163928
0.983154 0.0975967 0.181598
0.996704 0.163455 0.20499
1 0.226947 0.231296
1 0.281559 0.258824
1 0.325719 0.285847
1 0.362402 0.312245
1 0.396277 0.339208
0.999893 0.428855 0.366888
0.999863 0.462654 0.396902
0.999908 0.497673 0.429267
0.999939 0.533669 0.463844
0.999969 0.571771 0.5019
0.999985 0.611521 0.543099
1 0.651637 0.586084
1 0.692943 0.631678
1 0.734051 0.678248
1 0.774243 0.724773
1 0.813275 0.770733
1 0.849302 0.813794
1 0.882567 0.854047
1 0.911635 0.889494
1 0.935775 0.919188
1 0.955734 0.943954
1 0.971008 0.963058
1 0.981842 0.97673
1 0.989212 0.986099
1 0.993729 0.991897
1 0.996277 0.995163
1 0.997711 0.997024
1 0.998474 0.998032
1 0.99884 0.998505
0.00251774 0.0446632 0.0246738
0.00164797 0.0463569 0.0258183
0.000900282 0.0497597 0.0263828
0.00386053 0.0544594 0.0240787
0.0128786 0.0603494 0.0187686
0.0256199 0.0663767 0.013489
0.0417182 0.0728771 0.00946059
0.0582132 0.0790265 0.00663767
0.0733196 0.0843214 0.00503548
0.0893263 0.0892805 0.0041352
0.106218 0.0939956 0.00357061
0.125002 0.0970474 0.00349432
0.145693 0.0996109 0.00373846
0.169757 0.101884 0.00378424
0.191516 0.0999771 0.00442512
0.216388 0.0998245 0.00515755
0.243336 0.0969863 0.00604257
0.271031 0.0919814 0.00733959
0.304891 0.0855573 0.00900282
0.341604 0.076524 0.01178
0.382132 0.0656596 0.0167849
0.425467 0.0535286 0.0243076
0.469902 0.0419318 0.0340887
0.51664 0.0322271 0.0458839
0.563943 0.0255131 0.0589303
0.611017 0.0222477 0.0725567
0.658549 0.0218204 0.086183
0.704829 0.0225376 0.0989853
0.751415 0.0227817 0.110933
0.797284 0.0213169 0.121721
0.841718 0.0183413 0.13138
0.88542 0.0167697 0.140719
0.925017 0.0235599 0.150607
0.95935 0.0484932 0.163455
0.983963 0.0991379 0.181537
0.996826 0.164309 0.204807
1 0.228946 0.231983
1 0.282429 0.259113
1 0.325811 0.285786
1 0.362737 0.312306
1 0.395926 0.338781
0.999893 0.428931 0.366827
0.999863 0.462623 0.396796
0.999908 0.497032 0.428595
0.999939 0.533471 0.4636
0.999969 0.571313 0.501381
0.999985 0.61059 0.542062
1 0.651057 0.585412
1 0.691737 0.630304
1 0.732998 0.677028
1 0.773587 0.72398
1 0.812024 0.769238
1 0.848646 0.813001
1 0.881727 0.85301
1 0.910719 0.88838
1 0.935332 0.918654
1 0.9552 0.943282
1 0.970459 0.962371
1 0.981582 0.97641
1 0.988937 0.985763
1 0.993561 0.991669
1 0.996201 0.995087
1 0.99765 0.996948
1 0.998444 0.997986
1 0.99884 0.998505
0.00311284 0.0531319 0.0288243
0.0021973 0.0547341 0.0299535
0.0010071 0.0582284 0.0305943
0.00335698 0.0630198 0.0282902
0.0118715 0.0697032 0.0229191
0.0241093 0.0766461 0.0172122
0.0409857 0.0848554 0.0120851
0.0585031 0.0920119 0.00886549
0.0747845 0.098085 0.00643931
0.0924544 0.104448 0.00517281
0.109926 0.110018 0.0043183
0.130449 0.115404 0.00389105
0.152117 0.11899 0.00395209
0.174685 0.120958 0.00422675
0.200855 0.121538 0.00430304
0.228 0.119997 0.00477607
0.254108 0.117403 0.00518807
0.283772 0.113252 0.00595102
0.31603 0.106783 0.00721752
0.353414 0.0991836 0.00920119
0.393011 0.0880293 0.0128176
0.433326 0.0745403 0.0182956
0.478264 0.0597086 0.0269017
0.524071 0.0453956 0.0383764
0.570626 0.0345312 0.051957
0.617716 0.0282139 0.0666361
0.663752 0.0253758 0.0811933
0.710124 0.0244144 0.0952316
0.75552 0.0234531 0.108049
0.800366 0.0212558 0.119524
0.844724 0.0178836 0.129854
0.887297 0.0163882 0.139544
0.92694 0.0237125 0.149935
0.960479 0.0493477 0.163134
0.984161 0.100252 0.181689
0.996826 0.166247 0.205402
1 0.229343 0.231846
1 0.283101 0.25922
1 0.326635 0.286076
1 0.362783 0.312139
1 0.396353 0.338964
0.999893 0.429221 0.366964
0.999863 0.462287 0.396399
0.999908 0.497124 0.428611
0.999939 0.532921 0.463004
0.999969 0.570794 0.500801
0.999985 0.61033 0.541741
1 0.650126 0.58436
1 0.691478 0.629999
1 0.732448 0.676387
1 0.772656 0.722866
1 0.811673 0.768811
1 0.848005 0.812207
1 0.881117 0.852277
1 0.910445 0.88806
1 0.934905 0.91812
1 0.954971 0.943008
1 0.970336 0.962219
1 0.981308 0.976059
1 0.988846 0.985641
1 0.993469 0.991562
1 0.996139 0.994995
1 0.99762 0.996918
1 0.998428 0.997971
1 0.99884 0.998489
0.00349432 0.0637675 0.033814
0.00260929 0.0654765 0.0350042
0.00120546 0.0686198 0.0355688
0.00292973 0.0739452 0.0333104
0.0104524 0.0810407 0.0278325
0.0225376 0.0888533 0.0216983
0.0391699 0.0977646 0.0159762
0.0577859 0.10634 0.011429
0.0750744 0.113497 0.00860609
0.0942397 0.120562 0.00654612
0.113359 0.127321 0.00529488
0.134966 0.133944 0.00459297
0.157702 0.139467 0.0043183
0.182055 0.142947 0.00448615
0.208682 0.145205 0.00450141
0.235966 0.143877 0.00469978
0.265843 0.141314 0.00489815
0.29572 0.136934 0.00509651
0.32781 0.131289 0.00553903
0.363516 0.122896 0.00679026
0.401923 0.111315 0.00944533
0.44416 0.0969253 0.0144961
0.487648 0.0804303 0.0220645
0.533349 0.0635996 0.0326848
0.580087 0.0496071 0.0455634
0.625589 0.0387274 0.060502
0.670924 0.0321813 0.0749676
0.716518 0.0282139 0.0902419
0.760784 0.0251621 0.104143
0.805142 0.0216068 0.11667
0.848295 0.018204 0.128435
0.890776 0.0166323 0.138766
0.929763 0.024445 0.149599
0.962173 0.0505074 0.163058
0.985351 0.102327 0.181827
0.997147 0.167834 0.205539
1 0.231647 0.232471
1 0.284901 0.259831
1 0.327276 0.286198
1 0.363699 0.312581
1 0.396902 0.339223
0.999893 0.429252 0.366857
0.999863 0.462745 0.396704
0.999908 0.496956 0.428382
0.999954 0.533227 0.463249
0.999969 0.571054 0.501015
1 0.609796 0.541146
1 0.650156 0.584375
1 0.691447 0.629938
1 0.732113 0.675975
0.999985 0.772641 0.72285
1 0.811078 0.768078
1 0.847669 0.811826
1 0.881025 0.852155
1 0.909941 0.887419
1 0.934798 0.917983
1 0.954696 0.942657
1 0.970062 0.961852
1 0.981247 0.975982
1 0.988739 0.985504
1 0.993423 0.991485
1 0.996124 0.994965
1 0.997589 0.996872
1 0.998413 0.99794
1 0.998825 0.998489
0.0037232 0.0763409 0.0396124
0.00294499 0.0776989 0.04065
0.00135805 0.0809339 0.0413214
0.00263981 0.0864729 0.0390326
0.00936904 0.0937972 0.0336004
0.0207218 0.102541 0.0271
0.0368353 0.111849 0.0205234
0.055848 0.121492 0.0154879
0.0743877 0.130098 0.0112917
0.094316 0.13785 0.00889601
0.115526 0.145769 0.00668345
0.138399 0.15314 0.00561532
0.162783 0.160098 0.00503548
0.187747 0.165835 0.00489815
0.215167 0.168673 0.00515755
0.244785 0.170535 0.00503548
0.273838 0.167971 0.00497444
0.30634 0.164202 0.00482185
0.341161 0.157931 0.00483711
0.375158 0.149981 0.00540169
0.413169 0.139406 0.00698863
0.453925 0.124926 0.0104677
0.497673 0.107271 0.0164492
0.54313 0.0874037 0.0256199
0.588388 0.0679789 0.0379797
0.634363 0.0525978 0.0530709
0.679545 0.0416419 0.0693675
0.723629 0.0340734 0.085481
0.767651 0.0282902 0.100618
0.8103 0.0229648 0.114
0.852964 0.0178836 0.125933
0.894102 0.0161135 0.136919
0.931777 0.024155 0.148302
0.964004 0.0515602 0.162615
0.986038 0.103944 0.181781
0.997284 0.170779 0.206226
1 0.234272 0.233341
1 0.286107 0.260212
1 0.328725 0.2869
1 0.364401 0.312886
0.999985 0.397421 0.339467
0.999893 0.430045 0.367376
0.999863 0.462913 0.396735
0.999908 0.497566 0.428855
0.999954 0.533761 0.463691
0.999985 0.570916 0.500832
1 0.610071 0.54139
1 0.649836 0.583993
1 0.691218 0.629648
1 0.732341 0.676219
0.999985 0.772229 0.722362
1 0.8112 0.768231
1 0.847608 0.811719
1 0.880629 0.851667
1 0.909987 0.88748
1 0.934646 0.9178
1 0.954665 0.942611
1 0.970169 0.96199
1 0.981186 0.975891
1 0.988724 0.985489
1 0.993408 0.991485
1 0.996078 0.994919
1 0.997589 0.996872
1 0.998413 0.997925
1 0.998825 0.998474
0.00363165 0.0916915 0.0464485
0.00296025 0.0932631 0.0475471
0.00135805 0.0963912 0.0482795
0.00210575 0.101823 0.0460365
0.00782788 0.109926 0.0408026
0.0181125 0.118746 0.0341344
0.0328069 0.129015 0.0268864
0.0520638 0.139208 0.0203555
0.0707866 0.148516 0.0155947
0.0924849 0.157778 0.0115663
0.11429 0.165881 0.00885023
0.139788 0.174533 0.00660716
0.165759 0.182345 0.00572213
0.192462 0.189166 0.00537118
0.220508 0.194491 0.00544747
0.250111 0.196704 0.00549325
0.281773 0.196735 0.00514229
0.313802 0.193988 0.00485237
0.348928 0.188785 0.00448615
0.387503 0.180346 0.00456245
0.425071 0.169909 0.00556954
0.464942 0.156497 0.00807202
0.508019 0.1393 0.0128939
0.552483 0.118227 0.0204318
0.598383 0.0958724 0.0310521
0.643839 0.0747082 0.0447242
0.688594 0.0572976 0.0609293
0.732769 0.0438849 0.0779431
0.775235 0.033463 0.0941939
0.817685 0.0248264 0.109071
0.859297 0.0179141 0.122271
0.898665 0.0156405 0.134218
0.935699 0.0242771 0.146685
0.96643 0.0526589 0.161807
0.987594 0.107118 0.182025
0.997772 0.174685 0.207111
1 0.236805 0.234012
1 0.288823 0.261295
1 0.330144 0.287465
1 0.36582 0.313649
0.999969 0.398688 0.340276
0.999878 0.43061 0.367681
0.999863 0.463874 0.397452
0.999908 0.498436 0.429557
0.999954 0.534005 0.463828
0.999985 0.571664 0.501503
1 0.610132 0.54139
1 0.650339 0.584497
1 0.691737 0.630213
0.999985 0.732189 0.67602
0.999985 0.772702 0.722896
0.999985 0.811612 0.768704
1 0.847639 0.811765
1 0.880949 0.852049
1 0.909834 0.887297
1 0.934691 0.917845
1 0.954803 0.942794
1 0.970031 0.961837
1 0.981216 0.975952
1 0.988693 0.985443
1 0.993378 0.99144
1 0.996094 0.994949
1 0.997574 0.996857
1 0.998413 0.99794
1 0.998825 0.998474
0.0037232 0.110216 0.0545052
0.00325017 0.111849 0.0555886
0.00167849 0.114443 0.0561532
0.00167849 0.120287 0.0543069
0.00598154 0.128054 0.0491951
0.0152895 0.137789 0.0424048
0.0286412 0.14815 0.0348669
0.0468147 0.158602 0.0269017
0.0659495 0.168643 0.0209049
0.0872969 0.177844 0.0158083
0.111131 0.187594 0.0116884
0.13756 0.196628 0.00865187
0.166339 0.205356 0.00656138
0.195346 0.213642 0.00584421
0.224796 0.219608 0.00561532
0.255207 0.224445 0.00552377
0.287312 0.226154 0.00544747
0.321492 0.224933 0.00503548
0.35642 0.221393 0.00460822
0.393683 0.214343 0.0043183
0.434852 0.203967 0.00480659
0.477134 0.190219 0.00662242
0.518395 0.173663 0.0102693
0.563104 0.152834 0.0162966
0.608194 0.128649 0.0251926
0.65388 0.103639 0.0371557
0.698985 0.0801251 0.0521859
0.742123 0.0596628 0.0690013
0.784756 0.0429847 0.0861067
0.826276 0.0294347 0.102235
0.866011 0.0194095 0.116808
0.904906 0.0156863 0.130373
0.940002 0.0243381 0.144076
0.969757 0.0542458 0.160616
0.989517 0.11078 0.182116
0.998291 0.178225 0.207721
1 0.240864 0.235325
1 0.291554 0.262379
1 0.332448 0.288624
1 0.367605 0.314687
0.999954 0.399649 0.340795
0.999863 0.431891 0.368597
0.999847 0.464836 0.398154
0.999908 0.498985 0.429938
0.999954 0.535012 0.464714
0.999985 0.572045 0.501793
1 0.611048 0.542306
1 0.651209 0.585412
1 0.691768 0.630198
0.999985 0.732799 0.676692
0.999985 0.773022 0.723247
0.999985 0.811673 0.768765
1 0.848157 0.812375
1 0.880919 0.852018
1 0.910201 0.887739
